X:13
T:Boulevard Garibaldi
C:Thierry Mirebeau
R:Bourre 2 temps
D:Fubu
O:France
M:2/4
L:1/8
Z:<anamnese@laposte.net> -- http://anamnese.fr.st
Q:1/4=130
K:G
G>A Bd | c/d/c/B/ Ac | B>A GA | A/G/F/G/ A2 |
G>A Bd | c/d/c/B/ Ac | BG AF | A4 :|
|: A>B cA | B/c/B/A/ G2 | A>
